Newaita-dark/apps/32/netflix.svg

<svg height="32" viewBox="0 0 32 32" width="32" xmlns="http://www.w3.org/2000/svg" xmlns:xlink="http://www.w3.org/1999/xlink"><linearGradient id="a" gradientUnits="userSpaceOnUse" x1="15.87652" x2="15.87652" y1="28.033936" y2="29.35698000003"><stop offset="0" stop-opacity=".27451"/><stop offset="1" stop-opacity="0"/></linearGradient><linearGradient id="b"><stop offset="0" stop-opacity=".313726"/><stop offset=".222222" stop-opacity=".27451"/><stop offset="1" stop-opacity="0"/></linearGradient><radialGradient id="c" cx="450.908936" cy="189.579361" gradientTransform="matrix(.00000017 -.0781325 -.140638 -.0000001 52.130648 63.595333)" gradientUnits="userSpaceOnUse" r="21.166656" xlink:href="#b"/><radialGradient id="d" cx="450.908936" cy="189.579361" gradientTransform="matrix(-.00000017 .0781325 .140638 .0000001 -20.377613 -7.527479)" gradientUnits="userSpaceOnUse" r="21.166656" xlink:href="#b"/><radialGradient id="e" cx="450.908936" cy="189.579361" gradientTransform="matrix(-.00000017 -.0781325 .140638 -.0000001 -20.377613 63.595333)" gradientUnits="userSpaceOnUse" r="21.166656" xlink:href="#b"/><radialGradient id="f" cx="450.908936" cy="189.579361" gradientTransform="matrix(.00000017 .0781325 -.140638 .0000001 52.130646 -7.527479)" gradientUnits="userSpaceOnUse" r="21.166656" xlink:href="#b"/><linearGradient id="g" gradientUnits="userSpaceOnUse" x1="10.58434899997" x2="10.58434899997" y1="28.033934" y2="2.89610500006"><stop offset="0" stop-color="#424242"/><stop offset="1" stop-color="#616161"/></linearGradient><linearGradient id="h"><stop offset="0" stop-color="#f44336"/><stop offset="1" stop-color="#ef5350"/></linearGradient><linearGradient id="i" gradientUnits="userSpaceOnUse" x1="720.00011449082" x2="720.00011449082" xlink:href="#h" y1="1415.11822549082" y2="455.11808325459"/><linearGradient id="j" gradientUnits="userSpaceOnUse" x1="20.50717250003" x2="20.50717250003" xlink:href="#h" y1="23.40328150003" y2="7.52675699998"/><linearGradient id="k" gradientUnits="userSpaceOnUse" x1="21.16869799994" x2="21.16869799994" y1="23.40328150003" y2="7.52675699998"><stop offset="0" stop-color="#e57373"/><stop offset="1" stop-color="#ef9a9a"/></linearGradient><path d="m5.953125 27.9375h19.847656v1.46875h-19.847656zm0 0" fill="url(#a)"/><path d="m25.800781 28.035156h2.644531v-1.324218h-2.644531zm0 0" fill="url(#c)"/><path d="m5.953125 28.035156h-2.644531v1.320313h2.644531zm0 0" fill="url(#d)"/><path d="m5.953125 28.035156h-2.644531v-1.324218h2.644531zm0 0" fill="url(#e)"/><path d="m25.800781 28.035156h2.644531v1.320313h-2.644531zm0 0" fill="url(#f)"/><path d="m4.628906 2.894531h22.492188c.730468 0 1.324218.59375 1.324218 1.324219v22.492188c0 .730468-.59375 1.324218-1.324218 1.324218h-22.492188c-.730468 0-1.320312-.59375-1.320312-1.324218v-22.492188c0-.730469.589844-1.324219 1.320312-1.324219zm0 0" fill="url(#g)"/><path d="m4.628906 2.894531c-.730468 0-1.320312.589844-1.320312 1.324219v.164062c0-.730468.589844-1.324218 1.320312-1.320312h22.492188c.734375-.003906 1.324218.589844 1.324218 1.320312v-.164062c0-.734375-.589843-1.324219-1.324218-1.324219zm0 0" fill="#e6e6e6" fill-opacity=".392157"/><path d="m4.628906 28.035156c-.730468 0-1.320312-.589844-1.320312-1.324218v-.164063c0 .730469.589844 1.320313 1.320312 1.320313h22.492188c.734375 0 1.324218-.589844 1.324218-1.320313v.164063c0 .734374-.589843 1.324218-1.324218 1.324218zm0 0" fill-opacity=".196078"/><path d="m74.055428-168.691922h359.840637c11.686384 0 21.185477 9.499093 21.185477 21.185477v359.840637c0 11.686384-9.499093 21.185477-21.185477 21.185477h-359.840637c-11.686384 0-21.122983-9.499093-21.122983-21.185477v-359.840637c0-11.686384 9.436599-21.185477 21.122983-21.185477zm0 0" fill="none" stroke="#212121" stroke-linecap="round" stroke-width="3" transform="matrix(.062506 0 0 .062506 0 13.438783)"/><path d="m599.94274 455.153409v959.908384h1.417187c62.82865-26.454168 129.436466-46.294794 198.642459-58.340888v-901.567496zm0 0" fill="url(#i)" stroke="#212121" stroke-width="11.338583" transform="scale(.016538)"/><path d="m18.523438 7.527344v14.910156c1.144531.199219 2.246093.527344 3.285156.964844h.023437v-15.875zm0 0" fill="url(#j)"/><path d="m18.523438 7.609375v.332031h3.308593v-.332031zm0 0" fill="#fff" fill-opacity=".392157"/><path d="m1120.05058 455.153409v901.567496c69.205993 12.046094 135.813809 31.88672 198.642458 58.340888h1.417188v-959.908384zm0 0" fill="none" stroke="#212121" stroke-width="11.338583" transform="scale(.016538)"/><path d="m9.921875 7.527344 8.03125 14.824218c1.351563.183594 2.644531.539063 3.855469 1.050782h.023437l-8.601562-15.875zm0 0" fill="url(#k)"/><path d="m9.921875 7.625.179687.332031h3.128907l8.375 15.460938c.066406.027343.136719.054687.203125.082031h.023437l-8.601562-15.875zm0 0" fill="#fff" fill-opacity=".392157"/><path d="m13.230469 13.632812v.46875l4.722656 8.71875c.199219.027344.394531.054688.589844.089844.0625.011719.121093.023438.179687.035156.011719 0 .027344.003907.039063.003907.058593.011719.117187.023437.175781.035156.003906.003906.011719.003906.015625.003906.066406.011719.128906.027344.195313.039063.007812.003906.015624.003906.023437.007812.0625.011719.125.027344.1875.042969.011719 0 .019531.003906.03125.007813.0625.011718.125.027343.191406.042968 0 .003906.003907.003906.007813.003906.0625.015626.125.03125.1875.046876.007812.003906.015625.003906.019531.007812l.1875.046875c.007813.003906.019531.007813.027344.011719.0625.015625.125.03125.183593.050781.007813.003906.015626.003906.027344.007813l.1875.058593c.0625.015625.125.035157.1875.058594.007813 0 .019532.003906.027344.007813.058594.019531.117188.039062.175781.058593.011719.003907.023438.007813.035157.011719.058593.019531.117187.039062.175781.0625.007812 0 .015625.003906.023437.007812.054688.019532.113282.039063.171875.0625.003907 0 .011719.003907.015625.003907.058594.023437.117188.046875.175782.070312.011718.003907.023437.007813.03125.011719.058593.019531.117187.042969.171874.066406.011719.003906.019532.007813.03125.011719.058594.027344.117188.050781.175782.074219h.023437v-.46875h-.023437c-.058594-.023438-.117188-.046875-.175782-.070313-.011718-.007812-.019531-.011719-.03125-.015625-.054687-.023437-.113281-.042968-.171874-.066406-.007813-.003906-.019532-.007812-.03125-.011719-.058594-.023437-.117188-.046875-.175782-.066406-.003906-.003906-.011718-.007813-.015625-.007813-.058593-.023437-.117187-.042968-.171875-.0625-.007812-.003906-.015625-.003906-.023437-.007812-.058594-.019531-.117188-.042969-.175781-.0625-.011719-.003906-.023438-.007812-.035157-.011719-.058593-.019531-.117187-.039062-.175781-.058593-.007812-.003907-.019531-.003907-.027344-.007813-.0625-.019531-.125-.039063-.1875-.058594s-.125-.039062-.1875-.058593c-.011718-.003907-.019531-.003907-.027344-.007813-.058593-.015625-.121093-.035156-.183593-.050781-.007813-.003906-.019531-.007813-.027344-.007813-.0625-.019531-.125-.035156-.1875-.050781-.003906-.003906-.011719-.003906-.019531-.007812-.0625-.015626-.125-.03125-.1875-.046876-.003906 0-.007813 0-.007813-.003906-.066406-.015625-.128906-.03125-.191406-.042968-.011719-.003907-.019531-.007813-.03125-.007813-.0625-.015625-.125-.027344-.1875-.042969-.007813 0-.015625-.003906-.023437-.003906-.066407-.015625-.128907-.027344-.195313-.042969-.003906 0-.011719 0-.015625-.003906-.058594-.011719-.117188-.023437-.175781-.035156-.011719 0-.027344-.003907-.039063-.003907-.058594-.011718-.117187-.023437-.179687-.035156-.195313-.03125-.390625-.0625-.589844-.089844zm0 8.804688c-1.144531.199219-2.246094.527344-3.285157.964844h-.023437v.46875h.023437c1.039063-.4375 2.140626-.765625 3.285157-.964844zm0 0" fill-opacity=".235294"/><path d="m599.94274 455.153409 485.622942 896.371141c81.724484 11.101303 159.905998 32.595314 233.127356 63.537243h1.417188l-520.10784-959.908384zm0 0" fill="none" stroke="#212121" stroke-width="11.338583" transform="scale(.016538)"/></svg>

<?xml version="1.0" encoding="UTF-8"?>
<svg xmlns="http://www.w3.org/2000/svg" xmlns:xlink="http://www.w3.org/1999/xlink" width="32px" height="32px" viewBox="0 0 32 32" version="1.1">
<defs>
<linearGradient id="linear0" gradientUnits="userSpaceOnUse" x1="254" y1="233.5" x2="254" y2="254.666672" gradientTransform="matrix(0.062506,0,0,0.062506,-0.00000381506,13.438785)">
<stop offset="0" style="stop-color:rgb(0%,0%,0%);stop-opacity:0.27451;"/>
<stop offset="1" style="stop-color:rgb(0%,0%,0%);stop-opacity:0;"/>
</linearGradient>
<radialGradient id="radial0" gradientUnits="userSpaceOnUse" cx="450.908936" cy="189.579361" fx="450.908936" fy="189.579361" r="21.166656" gradientTransform="matrix(0.00000017417,-0.0781325,-0.140638,-0.000000101539,52.130648,63.595333)">
<stop offset="0" style="stop-color:rgb(0%,0%,0%);stop-opacity:0.313726;"/>
<stop offset="0.222222" style="stop-color:rgb(0%,0%,0%);stop-opacity:0.27451;"/>
<stop offset="1" style="stop-color:rgb(0%,0%,0%);stop-opacity:0;"/>
</radialGradient>
<radialGradient id="radial1" gradientUnits="userSpaceOnUse" cx="450.908936" cy="189.579361" fx="450.908936" fy="189.579361" r="21.166656" gradientTransform="matrix(-0.00000017417,0.0781325,0.140638,0.000000101539,-20.377613,-7.527479)">
<stop offset="0" style="stop-color:rgb(0%,0%,0%);stop-opacity:0.313726;"/>
<stop offset="0.222222" style="stop-color:rgb(0%,0%,0%);stop-opacity:0.27451;"/>
<stop offset="1" style="stop-color:rgb(0%,0%,0%);stop-opacity:0;"/>
</radialGradient>
<radialGradient id="radial2" gradientUnits="userSpaceOnUse" cx="450.908936" cy="189.579361" fx="450.908936" fy="189.579361" r="21.166656" gradientTransform="matrix(-0.00000017417,-0.0781325,0.140638,-0.000000101539,-20.377613,63.595333)">
<stop offset="0" style="stop-color:rgb(0%,0%,0%);stop-opacity:0.313726;"/>
<stop offset="0.222222" style="stop-color:rgb(0%,0%,0%);stop-opacity:0.27451;"/>
<stop offset="1" style="stop-color:rgb(0%,0%,0%);stop-opacity:0;"/>
</radialGradient>
<radialGradient id="radial3" gradientUnits="userSpaceOnUse" cx="450.908936" cy="189.579361" fx="450.908936" fy="189.579361" r="21.166656" gradientTransform="matrix(0.00000017417,0.0781325,-0.140638,0.000000101539,52.130646,-7.527479)">
<stop offset="0" style="stop-color:rgb(0%,0%,0%);stop-opacity:0.313726;"/>
<stop offset="0.222222" style="stop-color:rgb(0%,0%,0%);stop-opacity:0.27451;"/>
<stop offset="1" style="stop-color:rgb(0%,0%,0%);stop-opacity:0;"/>
</radialGradient>
<linearGradient id="linear1" gradientUnits="userSpaceOnUse" x1="169.333328" y1="233.5" x2="169.333328" y2="-168.666656" gradientTransform="matrix(0.062506,0,0,0.062506,0,13.438783)">
<stop offset="0" style="stop-color:rgb(25.882354%,25.882354%,25.882354%);stop-opacity:1;"/>
<stop offset="1" style="stop-color:rgb(38.039216%,38.039216%,38.039216%);stop-opacity:1;"/>
</linearGradient>
<linearGradient id="linear2" gradientUnits="userSpaceOnUse" x1="179.916672" y1="159.416672" x2="179.916672" y2="-94.583336" gradientTransform="matrix(3.779528,0,0,3.779528,40.000015,812.59845)">
<stop offset="0" style="stop-color:rgb(95.686275%,26.274511%,21.176471%);stop-opacity:1;"/>
<stop offset="1" style="stop-color:rgb(93.725491%,32.549021%,31.37255%);stop-opacity:1;"/>
</linearGradient>
<linearGradient id="linear3" gradientUnits="userSpaceOnUse" x1="179.916672" y1="159.416672" x2="179.916672" y2="-94.583336" gradientTransform="matrix(0.062506,0,0,0.062506,9.261301,13.438783)">
<stop offset="0" style="stop-color:rgb(95.686275%,26.274511%,21.176471%);stop-opacity:1;"/>
<stop offset="1" style="stop-color:rgb(93.725491%,32.549021%,31.37255%);stop-opacity:1;"/>
</linearGradient>
<linearGradient id="linear4" gradientUnits="userSpaceOnUse" x1="338.666656" y1="159.416672" x2="338.666656" y2="-94.583336" gradientTransform="matrix(0.062506,0,0,0.062506,0,13.438783)">
<stop offset="0" style="stop-color:rgb(89.803922%,45.09804%,45.09804%);stop-opacity:1;"/>
<stop offset="1" style="stop-color:rgb(93.725491%,60.392159%,60.392159%);stop-opacity:1;"/>
</linearGradient>
</defs>
<g id="surface1">
<path style=" stroke:none;fill-rule:nonzero;fill:url(#linear0);" d="M 5.953125 27.9375 L 25.800781 27.9375 L 25.800781 29.40625 L 5.953125 29.40625 Z M 5.953125 27.9375 "/>
<path style=" stroke:none;fill-rule:nonzero;fill:url(#radial0);" d="M 25.800781 28.035156 L 28.445312 28.035156 L 28.445312 26.710938 L 25.800781 26.710938 Z M 25.800781 28.035156 "/>
<path style=" stroke:none;fill-rule:nonzero;fill:url(#radial1);" d="M 5.953125 28.035156 L 3.308594 28.035156 L 3.308594 29.355469 L 5.953125 29.355469 Z M 5.953125 28.035156 "/>
<path style=" stroke:none;fill-rule:nonzero;fill:url(#radial2);" d="M 5.953125 28.035156 L 3.308594 28.035156 L 3.308594 26.710938 L 5.953125 26.710938 Z M 5.953125 28.035156 "/>
<path style=" stroke:none;fill-rule:nonzero;fill:url(#radial3);" d="M 25.800781 28.035156 L 28.445312 28.035156 L 28.445312 29.355469 L 25.800781 29.355469 Z M 25.800781 28.035156 "/>
<path style=" stroke:none;fill-rule:nonzero;fill:url(#linear1);" d="M 4.628906 2.894531 L 27.121094 2.894531 C 27.851562 2.894531 28.445312 3.488281 28.445312 4.21875 L 28.445312 26.710938 C 28.445312 27.441406 27.851562 28.035156 27.121094 28.035156 L 4.628906 28.035156 C 3.898438 28.035156 3.308594 27.441406 3.308594 26.710938 L 3.308594 4.21875 C 3.308594 3.488281 3.898438 2.894531 4.628906 2.894531 Z M 4.628906 2.894531 "/>
<path style=" stroke:none;fill-rule:nonzero;fill:rgb(90.196079%,90.196079%,90.196079%);fill-opacity:0.392157;" d="M 4.628906 2.894531 C 3.898438 2.894531 3.308594 3.484375 3.308594 4.21875 L 3.308594 4.382812 C 3.308594 3.652344 3.898438 3.058594 4.628906 3.0625 L 27.121094 3.0625 C 27.855469 3.058594 28.445312 3.652344 28.445312 4.382812 L 28.445312 4.21875 C 28.445312 3.484375 27.855469 2.894531 27.121094 2.894531 Z M 4.628906 2.894531 "/>
<path style=" stroke:none;fill-rule:nonzero;fill:rgb(0%,0%,0%);fill-opacity:0.196078;" d="M 4.628906 28.035156 C 3.898438 28.035156 3.308594 27.445312 3.308594 26.710938 L 3.308594 26.546875 C 3.308594 27.277344 3.898438 27.867188 4.628906 27.867188 L 27.121094 27.867188 C 27.855469 27.867188 28.445312 27.277344 28.445312 26.546875 L 28.445312 26.710938 C 28.445312 27.445312 27.855469 28.035156 27.121094 28.035156 Z M 4.628906 28.035156 "/>
<path style="fill:none;stroke-width:3;stroke-linecap:round;stroke-linejoin:miter;stroke:rgb(12.941177%,12.941177%,12.941177%);stroke-opacity:1;stroke-miterlimit:4;" d="M 74.055428 -168.691922 L 433.896065 -168.691922 C 445.582449 -168.691922 455.081542 -159.192829 455.081542 -147.506445 L 455.081542 212.334192 C 455.081542 224.020576 445.582449 233.519669 433.896065 233.519669 L 74.055428 233.519669 C 62.369044 233.519669 52.932445 224.020576 52.932445 212.334192 L 52.932445 -147.506445 C 52.932445 -159.192829 62.369044 -168.691922 74.055428 -168.691922 Z M 74.055428 -168.691922 " transform="matrix(0.062506,0,0,0.062506,0,13.438783)"/>
<path style="fill-rule:nonzero;fill:url(#linear2);stroke-width:11.338583;stroke-linecap:butt;stroke-linejoin:miter;stroke:rgb(12.941177%,12.941177%,12.941177%);stroke-opacity:1;stroke-miterlimit:4;" d="M 599.94274 455.153409 L 599.94274 1415.061793 L 601.359927 1415.061793 C 664.188577 1388.607625 730.796393 1368.766999 800.002386 1356.720905 L 800.002386 455.153409 Z M 599.94274 455.153409 " transform="matrix(0.016538,0,0,0.016538,0,0)"/>
<path style=" stroke:none;fill-rule:nonzero;fill:url(#linear3);" d="M 18.523438 7.527344 L 18.523438 22.4375 C 19.667969 22.636719 20.769531 22.964844 21.808594 23.402344 L 21.832031 23.402344 L 21.832031 7.527344 Z M 18.523438 7.527344 "/>
<path style=" stroke:none;fill-rule:nonzero;fill:rgb(100%,100%,100%);fill-opacity:0.392157;" d="M 18.523438 7.609375 L 18.523438 7.941406 L 21.832031 7.941406 L 21.832031 7.609375 Z M 18.523438 7.609375 "/>
<path style="fill:none;stroke-width:11.338583;stroke-linecap:butt;stroke-linejoin:miter;stroke:rgb(12.941177%,12.941177%,12.941177%);stroke-opacity:1;stroke-miterlimit:4;" d="M 1120.05058 455.153409 L 1120.05058 1356.720905 C 1189.256573 1368.766999 1255.864389 1388.607625 1318.693038 1415.061793 L 1320.110226 1415.061793 L 1320.110226 455.153409 Z M 1120.05058 455.153409 " transform="matrix(0.016538,0,0,0.016538,0,0)"/>
<path style=" stroke:none;fill-rule:nonzero;fill:url(#linear4);" d="M 9.921875 7.527344 L 17.953125 22.351562 C 19.304688 22.535156 20.597656 22.890625 21.808594 23.402344 L 21.832031 23.402344 L 13.230469 7.527344 Z M 9.921875 7.527344 "/>
<path style=" stroke:none;fill-rule:nonzero;fill:rgb(100%,100%,100%);fill-opacity:0.392157;" d="M 9.921875 7.625 L 10.101562 7.957031 L 13.230469 7.957031 L 21.605469 23.417969 C 21.671875 23.445312 21.742188 23.472656 21.808594 23.5 L 21.832031 23.5 L 13.230469 7.625 Z M 9.921875 7.625 "/>
<path style=" stroke:none;fill-rule:nonzero;fill:rgb(0%,0%,0%);fill-opacity:0.235294;" d="M 13.230469 13.632812 L 13.230469 14.101562 L 17.953125 22.820312 C 18.152344 22.847656 18.347656 22.875 18.542969 22.910156 C 18.605469 22.921875 18.664062 22.933594 18.722656 22.945312 C 18.734375 22.945312 18.75 22.949219 18.761719 22.949219 C 18.820312 22.960938 18.878906 22.972656 18.9375 22.984375 C 18.941406 22.988281 18.949219 22.988281 18.953125 22.988281 C 19.019531 23 19.082031 23.015625 19.148438 23.027344 C 19.15625 23.03125 19.164062 23.03125 19.171875 23.035156 C 19.234375 23.046875 19.296875 23.0625 19.359375 23.078125 C 19.371094 23.078125 19.378906 23.082031 19.390625 23.085938 C 19.453125 23.097656 19.515625 23.113281 19.582031 23.128906 C 19.582031 23.132812 19.585938 23.132812 19.589844 23.132812 C 19.652344 23.148438 19.714844 23.164062 19.777344 23.179688 C 19.785156 23.183594 19.792969 23.183594 19.796875 23.1875 C 19.859375 23.203125 19.921875 23.21875 19.984375 23.234375 C 19.992188 23.238281 20.003906 23.242188 20.011719 23.246094 C 20.074219 23.261719 20.136719 23.277344 20.195312 23.296875 C 20.203125 23.300781 20.210938 23.300781 20.222656 23.304688 C 20.285156 23.324219 20.347656 23.34375 20.410156 23.363281 C 20.472656 23.378906 20.535156 23.398438 20.597656 23.421875 C 20.605469 23.421875 20.617188 23.425781 20.625 23.429688 C 20.683594 23.449219 20.742188 23.46875 20.800781 23.488281 C 20.8125 23.492188 20.824219 23.496094 20.835938 23.5 C 20.894531 23.519531 20.953125 23.539062 21.011719 23.5625 C 21.019531 23.5625 21.027344 23.566406 21.035156 23.570312 C 21.089844 23.589844 21.148438 23.609375 21.207031 23.632812 C 21.210938 23.632812 21.21875 23.636719 21.222656 23.636719 C 21.28125 23.660156 21.339844 23.683594 21.398438 23.707031 C 21.410156 23.710938 21.421875 23.714844 21.429688 23.71875 C 21.488281 23.738281 21.546875 23.761719 21.601562 23.785156 C 21.613281 23.789062 21.621094 23.792969 21.632812 23.796875 C 21.691406 23.824219 21.75 23.847656 21.808594 23.871094 L 21.832031 23.871094 L 21.832031 23.402344 L 21.808594 23.402344 C 21.75 23.378906 21.691406 23.355469 21.632812 23.332031 C 21.621094 23.324219 21.613281 23.320312 21.601562 23.316406 C 21.546875 23.292969 21.488281 23.273438 21.429688 23.25 C 21.421875 23.246094 21.410156 23.242188 21.398438 23.238281 C 21.339844 23.214844 21.28125 23.191406 21.222656 23.171875 C 21.21875 23.167969 21.210938 23.164062 21.207031 23.164062 C 21.148438 23.140625 21.089844 23.121094 21.035156 23.101562 C 21.027344 23.097656 21.019531 23.097656 21.011719 23.09375 C 20.953125 23.074219 20.894531 23.050781 20.835938 23.03125 C 20.824219 23.027344 20.8125 23.023438 20.800781 23.019531 C 20.742188 23 20.683594 22.980469 20.625 22.960938 C 20.617188 22.957031 20.605469 22.957031 20.597656 22.953125 C 20.535156 22.933594 20.472656 22.914062 20.410156 22.894531 C 20.347656 22.875 20.285156 22.855469 20.222656 22.835938 C 20.210938 22.832031 20.203125 22.832031 20.195312 22.828125 C 20.136719 22.8125 20.074219 22.792969 20.011719 22.777344 C 20.003906 22.773438 19.992188 22.769531 19.984375 22.769531 C 19.921875 22.75 19.859375 22.734375 19.796875 22.71875 C 19.792969 22.714844 19.785156 22.714844 19.777344 22.710938 C 19.714844 22.695312 19.652344 22.679688 19.589844 22.664062 C 19.585938 22.664062 19.582031 22.664062 19.582031 22.660156 C 19.515625 22.644531 19.453125 22.628906 19.390625 22.617188 C 19.378906 22.613281 19.371094 22.609375 19.359375 22.609375 C 19.296875 22.59375 19.234375 22.582031 19.171875 22.566406 C 19.164062 22.566406 19.15625 22.5625 19.148438 22.5625 C 19.082031 22.546875 19.019531 22.535156 18.953125 22.519531 C 18.949219 22.519531 18.941406 22.519531 18.9375 22.515625 C 18.878906 22.503906 18.820312 22.492188 18.761719 22.480469 C 18.75 22.480469 18.734375 22.476562 18.722656 22.476562 C 18.664062 22.464844 18.605469 22.453125 18.542969 22.441406 C 18.347656 22.410156 18.152344 22.378906 17.953125 22.351562 Z M 13.230469 22.4375 C 12.085938 22.636719 10.984375 22.964844 9.945312 23.402344 L 9.921875 23.402344 L 9.921875 23.871094 L 9.945312 23.871094 C 10.984375 23.433594 12.085938 23.105469 13.230469 22.90625 Z M 13.230469 22.4375 "/>
<path style="fill:none;stroke-width:11.338583;stroke-linecap:butt;stroke-linejoin:miter;stroke:rgb(12.941177%,12.941177%,12.941177%);stroke-opacity:1;stroke-miterlimit:4;" d="M 599.94274 455.153409 L 1085.565682 1351.52455 C 1167.290166 1362.625853 1245.47168 1384.119864 1318.693038 1415.061793 L 1320.110226 1415.061793 L 800.002386 455.153409 Z M 599.94274 455.153409 " transform="matrix(0.016538,0,0,0.016538,0,0)"/>
</g>
</svg>
